sites/sveltevietnam.dev/src/routes/(site)/_page/sections/intro/images/mesh.svg

<svg width="1929" height="1647" viewBox="0 0 1929 1647" fill="none" xmlns="http://www.w3.org/2000/svg">
<path d="M40.5003 1564.5C175.068 1548.2 295.803 1472.81 427.057 1446.64C545.824 1422.96 693.772 1414.81 813.176 1426.46C970.49 1442 1086.71 1567.22 1239.75 1591.99C1450.84 1626.43 1682.41 1420.37 1883.5 1372.5M30.5002 1516.5C168.764 1499.76 297.205 1422.9 432.856 1397.94C557.42 1375.09 712.887 1363.05 837.897 1375.79C989.031 1391.13 1094.86 1515.85 1241.09 1541.82C1446.89 1578.11 1683.38 1375.39 1879.5 1330M19.5003 1465.5C163.116 1448.25 298.606 1373.56 440.374 1349.88C572.584 1327.66 738.819 1310.72 871.221 1324.98C1014.2 1340.39 1105.89 1464.41 1243.13 1491.59C1441.1 1530.87 1684.51 1331.26 1874 1289.5M10 1416.5C159.541 1398.68 301.027 1324.6 449.103 1301.87C589.66 1280.29 768.766 1257.69 909.068 1274.05C1043.32 1289.71 1118.57 1412.33 1245.87 1441.23C1434.41 1484.14 1686.47 1288.5 1868 1251M3.50016 1369C158.266 1350.41 303.767 1275.58 457.896 1253.87C606.29 1232.99 798.839 1204.41 946.469 1223.19C1072.82 1239.23 1130.8 1360.12 1248.74 1390.94C1427.14 1437.6 1687.58 1244.3 1860.5 1211M1 1322.5C159.143 1302.89 307.08 1226.05 464.968 1205.36C619.734 1185.05 824.39 1151.18 977.817 1172.13C1098.37 1188.55 1140.17 1307.8 1250.52 1340.39C1419.62 1390.37 1687.67 1201.92 1852.5 1172M4.50069 1275C162.962 1254.05 310.394 1170.66 469.747 1156.79C633.561 1142.46 837.133 1098.85 998.971 1121.77C1116.65 1138.39 1145.52 1256.48 1251.29 1290.41C1413.63 1342.36 1682.59 1157.58 1841.5 1129.5M18.0008 1225C172.129 1202.78 315.618 1120.24 471.213 1107.57C636.173 1094.21 841.465 1048.5 1004.26 1071.8C1121.31 1088.6 1146.15 1205.49 1250.84 1239.93C1410.13 1291.94 1670.96 1112.96 1827 1084.5M45.5001 1177.5C197.144 1155.28 339.193 1080.33 492.749 1068.55C650.445 1056.39 842.485 1000.75 998.27 1027.68C1112.96 1047.48 1154.31 1167.74 1262.5 1195.43C1417.58 1234.84 1653.29 1072.63 1802 1045M89.5003 1132.5C236.047 1112.77 370.35 1049.26 519.318 1040.09C668.286 1030.92 831.526 976.747 979.41 994.891C1093.14 1008.9 1143.16 1111.52 1247.85 1141.82C1394.39 1184.29 1612.68 1041.3 1757.57 1015.96M137.501 1093C257.35 1078.99 368.311 1032.9 488.352 1021.31C639.168 1006.73 806.931 951.282 958.065 965.16C1070.21 975.601 1139.72 1066.26 1246.12 1090C1387.13 1121.45 1551.81 1016.83 1689.5 995.499M184.001 1055C297.097 1045.26 404.183 1012.08 517.661 1002.72C656.18 991.262 797.119 928.745 936.848 935.048C1044.21 939.886 1124.75 1013.99 1226.12 1037.42C1361.07 1068.55 1470.72 995.035 1603.5 979.501M223.5 1017C324.554 1011.27 426.93 992.28 527.665 981.012C656.881 966.497 783.93 905.508 914.547 905.89C1023.63 906.272 1114.55 970.062 1218.73 990.561C1333.8 1013.23 1416.84 967.403 1530 958.999M254.501 974C338.924 971.581 428.077 966.179 512.246 959.431C644.52 948.799 764.751 875.587 897.727 874.95C1015.28 874.377 1121.88 928.618 1237.46 942.497C1327.04 953.319 1396.33 920.515 1484 930M270 930.501C349.199 929.418 438.144 930.209 517.024 923.843C645.603 913.466 757.806 837.07 887.15 834.715C1006.36 832.487 1119.27 880.297 1236.95 892.775C1314.3 901.052 1384.09 889.971 1461 895.001M271.001 884C350.645 882.153 438.781 884.435 518.171 877.496C646.367 866.291 757.934 790.278 886.958 788.368C1005.34 786.585 1119.78 829.812 1236.95 841.972C1312.77 849.866 1376.3 847 1452.5 847M255.5 833.001C342.664 833.001 433.939 847.447 520.911 840.571C651.337 830.385 765.898 756.091 896.835 753.162C1092.76 748.897 1265.15 795.692 1463.5 795.501M224.696 782.384C333.013 787.796 439.61 820.137 548.245 809.505C673.447 797.282 786.606 730.563 913.337 725.915C1116.59 718.53 1294.6 746.164 1499 743.999M183.535 731.963C301.983 743.804 415.143 791.615 534.482 789.26C670.516 786.459 798.011 719.549 933.917 708.853C1146.35 692.174 1341 695.119 1554 691.999M137.501 681C276.529 700.862 419.73 778.183 561.243 769.843C695.046 761.948 822.478 703.57 957.301 691.219C1181.26 670.656 1379.99 644.256 1606.5 640.5M96.5007 630.501C246.169 656.348 395.582 747.879 548.245 748.133C689.248 748.133 836.241 690.837 975.97 671.419C1070.4 658.687 1154.37 616.988 1247.72 601.39C1378.91 579.426 1510.22 591.713 1643 589.549M68.0008 580.499C237.166 612.331 399.277 719.676 572.648 716.301C707.981 713.628 860.134 669.573 993.619 645.317C1082.82 629.147 1148.26 576.561 1233.64 554.215C1370.12 518.564 1522.34 542.31 1662 540.655M53.0002 530C228.665 563.423 394.881 679.951 575.006 676.958C711.039 674.667 868.099 633.158 1001.9 607.311C1092.51 589.804 1148.45 529.579 1233.89 504.241C1365.72 465.152 1535.48 494.882 1671 494.437M46.0005 479.5C221.219 510.567 396.984 625.837 575.069 626.601C713.779 627.174 860.962 571.914 999.226 554.343C1093.4 542.375 1144.24 481.195 1230.32 452.992C1363.43 409.319 1545.77 450.02 1682.5 445.5M44.0006 425C218.009 451.866 401.571 569.049 576.025 572.487C711.613 575.097 852.552 507.423 988.713 492.335C1083.01 482.022 1132.84 426.19 1218.09 396.268C1366.8 344.192 1558.19 415.274 1709 414M45.0002 381.001C223.405 402.583 417.627 520.728 594.312 518.946C717.411 517.672 842.803 436.184 967.814 424.024C1068.74 414.029 1121.31 361.444 1214.01 330.44C1381.46 274.48 1590.21 389.761 1756 399.501M48.5007 331.499C143.956 339.604 253.332 359.073 345.183 386.273C414.187 406.454 520.847 463.497 595.841 461.459C714.989 458.276 823.306 363.1 947.807 352.85C1049.12 344.574 1099.32 298.609 1191.9 266.332C1386.04 198.722 1608.74 362.598 1796 387.999M52.5005 286.5C142.497 290.068 244.694 301.384 332.297 322.289C402.385 339.669 510.001 400.977 582.063 404.478C643.039 407.471 685.538 363.607 734.981 336.805C810.039 295.933 846.42 286.32 932.5 282.5C1035.15 277.916 1087.01 227.432 1181.37 198.338C1401.9 130.346 1627.77 335.191 1833.96 373.262M58.0006 233.999C143.189 235.527 239.414 241.567 323.137 258.437C405.394 274.99 493.64 335.661 573.795 344.382C635.854 351.131 659.429 316.371 705.559 286.449C779.151 238.702 820.248 215.465 909.896 212.6C1015.54 209.226 1055.81 172.811 1152.02 139.77C1407.52 52.0419 1641.86 299.755 1878.38 347.82M62.5008 186C146.16 185.427 239.797 185.225 322.564 199.04C408.134 213.364 495.934 281.038 576.153 289.441C638.658 295.808 652.612 261.366 695.492 228.325C767.045 173.256 803.809 149.892 896.516 148.81C1004.2 147.473 1040.13 116.978 1137.87 81.1998C1416.56 -20.9793 1658.52 258.152 1916 308M1871 232C1859.19 302.327 1820.95 351.555 1759.1 362.718C1728.94 372.889 1699 379.5 1670.5 399.5C1616.47 442.982 1641.16 460.313 1624.41 530.852C1595.8 651.238 1423.25 743.104 1433.58 869.029C1445.68 1016.54 1717.49 962.487 1775.35 1096.24C1813.13 1183.59 1821.85 1338.63 1833 1434M1787.5 205.001C1778.03 269.682 1745.89 316.541 1691.18 339.544C1664.93 353.691 1639.98 370.138 1616.63 388.692C1572.86 436.949 1588.85 466.234 1574.2 531.488C1547.76 648.819 1398.53 747.497 1408.54 869.539C1420.07 1011.83 1656.52 985.469 1706.54 1116.55C1742.34 1210.26 1747.05 1364.04 1757.5 1464.5M1689.5 160C1648.59 274.594 1597.9 285.24 1544.76 382.326C1516.66 433.893 1537.05 476.483 1531.38 529.323C1518.13 652.957 1382.67 744.059 1390.57 870.43C1398.66 1000.81 1588.09 1022.2 1624.98 1144.18C1657.22 1251.39 1662.04 1396.35 1670 1507M1582.5 103.5C1560.77 198.548 1520.93 266.268 1491.05 356.033C1469.51 420.841 1487.16 481.576 1477.35 547.022C1461.04 656.777 1368.52 758.892 1375.4 871.703C1382.99 994.636 1520.23 1040.79 1548.65 1154.18C1577.38 1268.77 1574.96 1433.7 1580.5 1552.5M1471.5 49.0008C1452.39 215.734 1437.46 362.335 1429.94 528.495C1424.66 645.699 1363.3 754.308 1366.23 872.276C1369.35 994.636 1460.08 1082.36 1472.38 1202.88C1485.12 1327.91 1486.26 1469.08 1489 1595M1359.28 10.9996C1356.54 191.675 1383.43 365.391 1381.97 545.176C1381.08 655.185 1349.15 761.63 1349.54 872.212C1349.98 988.588 1391.01 1095.86 1397.26 1211.35C1404.59 1347.01 1404.93 1489.39 1405.5 1625.5M1247.5 0.999994C1261.26 181.039 1323.48 347.438 1329.53 528.05C1333.35 642.644 1321.05 757.81 1320.29 872.531C1318.63 1129.79 1333.07 1384.29 1332.5 1642M1157.18 17.0914C1183.87 193.12 1270.72 350.176 1277.47 529.196C1281.74 643.026 1276.58 758.001 1276.58 871.958C1276.58 1131.45 1275.28 1386.51 1277 1646M1117 32.5001C1144.59 210.756 1231.79 372.267 1234.15 554.725C1235.61 658.941 1225.54 763.476 1225.54 867.756C1225.54 1124.89 1219.49 1383.18 1220 1640M1082.5 48.0009C1109.13 223.392 1200.57 388.374 1196.43 568.031C1194.2 665.562 1173.17 761.184 1173.23 859.161C1173.23 972.418 1195.66 1083.38 1197.89 1196.58C1200.76 1338.16 1161.61 1480.86 1156 1622M1052 61.5002C1077.04 226.642 1172.79 399.705 1162.59 568.858C1156.8 663.652 1121.11 752.398 1120.99 848.147C1120.99 961.977 1165.59 1068.74 1166.86 1182.31C1168.52 1319.38 1102.53 1457.14 1088 1593M1023.5 73.0001C1048.16 236.296 1157.11 435.676 1127.55 603.619C1113.47 683.643 1067.72 752.272 1067.08 835.734C1066.32 939.695 1129.02 1028.76 1135.77 1130.94C1145.2 1272.97 1042.55 1418.79 1017 1557M994.501 82.4999C1016.61 235.291 1136.34 463.878 1093.33 620.234C1073.39 692.874 1015.47 744.505 1014.07 823.956C1012.35 925.371 1095.18 1000.56 1104.29 1098.79C1117.04 1238.85 984.96 1389.93 951 1524M962 89.499C984.301 243.818 1106.84 470.817 1061.73 624.627C1039.18 701.468 966.858 729.353 965.138 815.616C962.972 922.952 1067.47 987.506 1066.64 1093.82C1065.55 1234.96 927.734 1364.13 886 1497.5M920.501 93.5004C938.022 218.153 976.734 333.751 1004.39 456.238C1015.86 507.169 1038.22 581.973 1020.19 634.176C993.81 710.253 915.631 721.012 913.401 810.204C910.725 918.431 1025.8 971.144 1025.6 1078.48C1025.6 1221.34 871.601 1347.55 827 1481.5M860.001 92.9991C881.983 219.179 919.135 331.14 949.655 455.219C962.398 506.15 988.522 584.01 970.363 636.977C944.112 713.373 865.295 720.121 863.193 810.523C860.644 918.75 974.568 969.165 974.632 1075.99C974.632 1219.17 821.714 1340.89 776.73 1475.1M793.5 101C819.305 225.079 856.948 338.971 889.125 461.395C902.569 512.325 931.05 589.103 914.229 643.089C890.654 718.721 816.553 730.626 814.386 818.353C811.838 920.978 911.234 977.829 910.279 1079.37C909.004 1220.64 767.773 1339.26 724 1472M742.001 123.5C766.531 242.74 800.815 357.879 830.251 475.974C842.995 526.904 869.309 600.18 854.527 654.23C834.265 728.016 768.511 748.642 765.835 832.105C762.776 926.899 839.809 991.262 837.133 1085.48C833.437 1224.46 708.587 1339.09 668 1471M702 152.501C725.575 286.193 836.113 551.351 789.218 681.923C766.217 745.905 719.768 773.853 715.563 847.957C711.039 928.49 758.826 996.228 759.336 1075.42C760.228 1218.09 649.73 1336.26 611.5 1472.5M670 185C687.14 323.467 767.537 560.28 727.587 695.882C708.982 759.099 673.62 795.769 668.332 865.353C662.725 938.438 683.751 1009.93 680.246 1082.83C673.429 1223.2 588.849 1339.63 557.5 1476M638.501 218C647.102 361.942 700.207 568.413 667.011 709.426C652.42 771.243 627.444 816.826 620.945 881.953C614 951.218 610.75 1021.06 603.614 1090.32C589.533 1227.26 528.33 1346.22 504.5 1481.5M611 233C611 382.162 626.615 552.815 608.711 701.214C600.811 766.723 579.657 827.712 571.884 893.985C548.372 1093.7 485.178 1287.46 459.5 1488M576.089 237.684C568.825 461.459 551.558 680.587 523.651 900.67C514.539 972.355 482.618 1028 471.913 1098.34C451.906 1229.49 434.258 1362.08 424 1494.5M512.246 220.999C511.545 455.407 505.428 668.618 477.457 900.861C468.409 976.047 432.473 1028.63 420.112 1101.34C397.175 1233.69 388.337 1370.86 380.5 1505M440.5 186C445.215 423.654 464.36 663.034 442.569 900.688C434.477 989.052 377.26 1042.78 361.905 1128.79C339.031 1257.01 335.97 1389.63 331 1519.5M372.501 155.5C376.897 326.244 359.009 497.746 377.359 667.663C386.024 747.56 423.489 820.964 417.5 902.707C410.173 1002.53 328.999 1052.19 307.335 1147.49C278.599 1273.93 288.147 1408.9 287 1537.5M306.213 141.779C309.781 302.528 278.369 499.119 316.598 657.449C336.924 741.357 402.806 816.606 397.39 906.88C391.019 1015.81 286.525 1053.31 252.5 1149.5C209.428 1271.29 239.324 1428.81 242 1555.5M242.501 135.999C244.03 286.053 207.365 484.632 253.559 630.165C282.868 722.349 382.52 803.201 377.359 905.826C371.306 1024.68 237.184 1066.83 196.151 1168.37C147.6 1288 189.927 1448.22 197 1573M180.5 134.5C179.736 273.476 139.189 475.401 191.627 608.011C230.621 706.562 356.843 793.78 353.721 907.227C350.216 1032.58 187.358 1084.02 140.272 1187.34C86.4325 1305.63 139.359 1466.31 150 1589.5M125.001 135.501C122.261 269.193 78.3406 465.406 132.308 591.65C176.909 695.93 325.112 786.013 322.5 907.928C319.696 1038.25 137.724 1095.99 85.9228 1200.78C27.4317 1319.06 90.3108 1479.38 103.5 1602.5M65.2574 137.054C159.175 134.953 252.709 129.924 345.607 148.068C418.243 162.264 514.391 239.169 579.763 237.832C646.792 236.559 654.693 190.722 705.156 149.723C766.897 99.5564 810.223 90.8982 892.226 93.3811C985.888 96.2459 1028.2 71.9903 1113 34.1745C1414.19 -100.282 1643.12 207.02 1926.08 242.416C1946.5 334 1832 384.5 1738 403.5C1656.5 419.973 1684 494.5 1652 570.5C1597.32 700.363 1431.33 736.568 1454.9 872.17C1481.79 1027.51 1750.61 946.593 1820.25 1068.32C1841.5 1116.5 1855.93 1182.68 1866 1240.5C1877.5 1306.5 1883.93 1356.46 1886.26 1418.21C1683.39 1465.96 1446.04 1676.11 1232.91 1642.3C1076.87 1617.54 955.304 1492.82 795.378 1476.78C678.523 1465.06 533.505 1471.3 417.479 1495.88C287.881 1523.44 181.73 1596.59 47.9266 1612.32C33.8454 1487.98 -35.796 1325.83 26.5181 1206.46C81.8235 1100.47 269.403 1041.51 272.334 908.14C275.201 780.814 116.549 692.45 69.6538 584.223C16.3873 461.799 61.4344 267.436 65.2574 137.054Z" stroke="currentcolor" stroke-width="0.25" stroke-miterlimit="10"/>
</svg>

<svg xmlns="http://www.w3.org/2000/svg" fill="none" viewBox="0 0 1929 1647">
  <path stroke="currentcolor" stroke-miterlimit="10" stroke-width=".3" d="M40.5 1564.5c134.6-16.3 255.3-91.7 386.6-117.9 118.7-23.6 266.7-31.8 386-20.1 157.4 15.5 273.6 140.7 426.6 165.5 211.1 34.4 442.7-171.6 643.8-219.5m-1853 144c138.3-16.7 266.7-93.6 402.4-118.6 124.5-22.8 280-34.9 405-22.1 151.1 15.3 257 140 403.2 166 205.8 36.3 442.3-166.4 638.4-211.8m-1860 135.5c143.6-17.3 279.1-92 420.9-115.6 132.2-22.2 298.4-39.2 430.8-25 143 15.5 234.7 139.5 372 166.7 197.9 39.3 441.3-160.3 630.8-202.1m-1864 127c149.5-17.8 291-91.9 439.1-114.6 140.6-21.6 319.7-44.2 460-27.9 134.2 15.7 209.5 138.3 336.8 167.2 188.5 43 440.6-152.7 622.1-190.2M3.5 1369c154.8-18.6 300.3-93.4 454.4-115.1 148.4-21 341-49.5 488.6-30.7 126.3 16 184.3 137 302.2 167.7 178.4 46.7 438.9-146.6 611.8-179.9M1 1322.5c158.1-19.6 306-96.5 464-117.1 154.7-20.4 359.4-54.2 512.8-33.3 120.6 16.5 162.4 135.7 272.7 168.3 169.1 50 437.2-138.5 602-168.4M4.5 1275c158.5-21 305.9-104.3 465.2-118.2 163.9-14.3 367.4-58 529.3-35 117.7 16.6 146.5 134.7 252.3 168.6 162.3 52 431.3-132.8 590.2-160.9M18 1225c154.1-22.2 297.6-104.8 453.2-117.4 165-13.4 370.3-59.1 533-35.8 117.1 16.8 142 133.7 246.6 168.1 159.3 52 420.2-127 576.2-155.4m-1781.5 93c151.6-22.2 293.7-97.2 447.2-109 157.7-12.1 349.8-67.8 505.6-40.8 114.7 19.8 156 140 264.2 167.7 155 39.4 390.8-122.8 539.5-150.4M89.5 1132.5c146.5-19.7 280.9-83.2 429.8-92.4 149-9.2 312.2-63.4 460.1-45.2 113.7 14 163.8 116.6 268.4 147 146.6 42.4 364.9-100.6 509.8-126M137.5 1093c119.9-14 230.8-60.1 350.9-71.7 150.8-14.6 318.5-70 469.7-56.1 112.1 10.4 181.6 101 288 124.8 141 31.5 305.7-73.2 443.4-94.5M184 1055c113.1-9.7 220.2-43 333.7-52.3 138.5-11.4 279.4-74 419.1-67.7 107.4 4.9 188 79 289.3 102.4 135 31.1 244.6-42.4 377.4-57.9m-1380 37.5c101-5.7 203.4-24.7 304.2-36 129.2-14.5 256.2-75.5 386.8-75.1 109.1.4 200 64.2 304.2 84.7 115.1 22.6 198.1-23.2 311.3-31.6M254.5 974c84.4-2.4 173.6-7.8 257.7-14.6 132.3-10.6 252.6-83.8 385.5-84.4 117.6-.6 224.2 53.6 339.8 67.5 89.5 10.8 158.8-22 246.5-12.5m-1214 .5c79.2-1 168.1-.3 247-6.7 128.6-10.3 240.8-86.7 370.1-89 119.3-2.3 232.2 45.5 349.9 58 77.3 8.3 147-2.8 224 2.2M271 884c79.6-1.8 167.8.4 247.2-6.5 128.2-11.2 239.7-87.2 368.8-89.1 118.3-1.8 232.8 41.4 350 53.6 75.8 7.9 139.3 5 215.5 5m-1197-14c87.2 0 178.4 14.4 265.4 7.6 130.4-10.2 245-84.5 376-87.4 195.9-4.3 368.3 42.5 566.6 42.3M224.7 782.4c108.3 5.4 215 37.7 323.5 27.1 125.2-12.2 238.4-79 365.1-83.6 203.3-7.4 381.3 20.3 585.7 18.1M183.5 732c118.5 11.8 231.6 59.6 351 57.3 136-2.8 263.5-69.8 399.4-80.4C1146.3 692.2 1341 695 1554 692M137.5 681c139 19.9 282.2 97.2 423.7 88.8 133.8-7.9 261.3-66.2 396.1-78.6 224-20.5 422.7-47 649.2-50.7m-1510-10c149.7 25.8 299 117.4 451.7 117.6 141 0 288-57.3 427.8-76.7 94.4-12.7 178.4-54.4 271.7-70 131.2-22 262.5-9.7 395.3-11.9m-1575-9c169.2 31.8 331.3 139.2 504.6 135.8 135.4-2.7 287.5-46.7 421-71 89.2-16.2 154.7-68.7 240-91 136.5-35.7 288.7-12 428.4-13.6M53 530c175.7 33.4 341.9 150 522 147 136-2.3 293.1-43.8 426.9-69.7 90.6-17.5 146.6-77.7 232-103 131.8-39.1 301.6-9.4 437.1-9.9M46 479.5c175.2 31 351 146.3 529 147.1 138.8.6 286-54.7 424.2-72.3 94.2-12 145-73.1 231.1-101.3 133.1-43.7 315.5-3 452.2-7.5M44 425c174 26.9 357.6 144 532 147.5 135.6 2.6 276.6-65 412.7-80.2 94.3-10.3 144.1-66.1 229.4-96 148.7-52.1 340 19 490.9 17.7M45 381c178.4 21.6 372.6 139.7 549.3 138 123.1-1.3 248.5-82.8 373.5-95 101-10 153.5-62.6 246.2-93.6 167.5-56 376.2 59.4 542 69.1m-1707.5-68a1565 1565 0 0 1 296.7 54.8c69 20.2 175.6 77.2 250.6 75.2 119.2-3.2 227.5-98.4 352-108.6 101.3-8.3 151.5-54.3 244.1-86.6C1386 198.7 1608.7 362.6 1796 388M52.5 286.5c90 3.6 192.2 14.9 279.8 35.8 70 17.4 177.7 78.7 249.8 82.2 61 3 103.4-40.9 152.9-67.7 75-40.9 111.4-50.5 197.5-54.3 102.7-4.6 154.5-55 248.9-84.2 220.5-68 446.4 136.9 652.6 175M58 234c85.2 1.5 181.4 7.6 265.1 24.4 82.3 16.6 170.5 77.3 250.7 86 62 6.7 85.6-28 131.8-58 73.6-47.7 114.6-71 204.3-73.8 105.6-3.4 146-39.8 242.1-72.8 255.5-87.8 489.9 160 726.4 208M62.5 186c83.7-.6 177.3-.8 260 13 85.6 14.4 173.4 82 253.7 90.4 62.5 6.4 76.4-28 119.3-61 71.5-55.1 108.3-78.5 201-79.6 107.7-1.3 143.6-31.8 241.4-67.6C1416.6-21 1658.5 258.2 1916 308m-45-76c-11.8 70.3-50 119.6-111.9 130.7-30.2 10.2-60.1 16.8-88.6 36.8-54 43.5-29.3 60.8-46 131.4-28.7 120.3-201.3 212.2-191 338.1 12.2 147.5 284 93.5 341.8 227.2 37.8 87.4 46.5 242.4 57.7 337.8m-45.5-1229c-9.5 64.7-41.6 111.5-96.3 134.5a504.8 504.8 0 0 0-74.6 49.2c-43.7 48.2-27.8 77.5-42.4 142.8-26.4 117.3-175.7 216-165.7 338 11.6 142.3 248 116 298 247 35.8 93.8 40.5 247.5 51 348m-68-1304.5c-41 114.6-91.6 125.2-144.7 222.3-28.1 51.6-7.8 94.2-13.4 147-13.3 123.7-148.7 214.8-140.8 341.1 8 130.4 197.5 151.8 234.4 273.8 32.2 107.2 37 252.1 45 362.8m-87.5-1403.5c-21.7 95-61.6 162.8-91.5 252.5-21.5 64.8-3.8 125.6-13.7 191-16.3 109.8-108.8 211.9-101.9 324.7 7.6 123 144.8 169 173.3 282.5 28.7 114.6 26.3 279.5 31.8 398.3M1471.5 49c-19.1 166.7-34 313.3-41.6 479.5-5.2 117.2-66.6 225.8-63.7 343.8 3.1 122.3 93.9 210 106.2 330.6 12.7 125 13.9 266.2 16.6 392.1M1359.3 11c-2.8 180.7 24.1 354.4 22.7 534.2-1 110-32.8 216.4-32.5 327 .5 116.4 41.5 223.7 47.8 339.1 7.3 135.7 7.6 278 8.2 414.2M1247.5 1c13.8 180 76 346.4 82 527 3.8 114.6-8.5 229.8-9.2 344.5-1.7 257.3 12.8 511.8 12.2 769.5M1157.2 17c26.7 176.1 113.5 333.2 120.3 512.2 4.2 113.8-1 228.8-1 342.8 0 259.5-1.2 514.5.5 774M1117 32.5c27.6 178.3 114.8 339.8 117.2 522.2 1.4 104.2-8.7 208.8-8.7 313 0 257.2-6 515.5-5.5 772.3M1082.5 48c26.6 175.4 118 340.4 114 520-2.3 97.6-23.3 193.2-23.3 291.2 0 113.2 22.5 224.2 24.7 337.4 2.9 141.6-36.3 284.3-41.9 425.4M1052 61.5c25 165.1 120.8 338.2 110.6 507.4-5.8 94.8-41.5 183.5-41.6 279.2 0 113.9 44.6 220.6 45.9 334.2 1.6 137-64.4 274.8-78.9 410.7M1023.5 73c24.7 163.3 133.6 362.7 104 530.6-14 80-59.8 148.7-60.4 232.1-.8 104 62 193 68.7 295.2 9.4 142-93.3 287.9-118.8 426.1M994.5 82.5c22.1 152.8 141.8 381.4 98.8 537.7-20 72.7-77.8 124.3-79.2 203.8-1.8 101.4 81 176.6 90.2 274.8C1117 1238.8 985 1389.9 951 1524M962 89.5c22.3 154.3 144.8 381.3 99.7 535.1-22.5 76.9-94.8 104.8-96.6 191-2.1 107.4 102.4 172 101.5 278.2-1 141.2-138.9 270.3-180.6 403.7m34.5-1404c17.5 124.7 56.2 240.3 83.9 362.7 11.5 51 33.8 125.8 15.8 178-26.4 76-104.6 86.8-106.8 176-2.7 108.2 112.4 161 112.2 268.3 0 142.8-154 269-198.6 403M860 93c22 126.2 59.1 238.1 89.7 362.2 12.7 51 38.8 128.8 20.7 181.8-26.4 76.4-105.1 83-107.2 173.5-2.6 108.3 111.4 158.7 111.4 265.5 0 143.2-152.9 264.9-197.9 399.1M793.5 101c25.8 124 63.4 238 95.6 360.4 13.5 51 42 127.7 25.1 181.7-23.5 75.6-97.6 87.5-99.8 175.3-2.6 102.6 96.8 159.4 95.9 261C909 1220.6 767.8 1339.3 724 1472m18-1348.5c24.5 119.2 58.8 234.4 88.3 352.5 12.7 50.9 39 124.2 24.2 178.2-20.2 73.8-86 94.4-88.7 177.9-3 94.8 74 159.2 71.3 253.4-3.7 139-128.5 253.6-169.1 385.5m34-1318.5c23.6 133.7 134.1 398.9 87.2 529.4-23 64-69.4 92-73.6 166-4.6 80.6 43.2 148.3 43.7 227.5 1 142.7-109.6 260.9-147.8 397.1M670 185c17.1 138.5 97.5 375.3 57.6 510.9-18.6 63.2-54 99.9-59.3 169.5-5.6 73 15.5 144.5 12 217.4-6.9 140.4-91.5 256.8-122.8 393.2m81-1258c8.6 144 61.7 350.4 28.5 491.4-14.6 61.8-39.6 107.4-46 172.6-7 69.2-10.3 139-17.4 208.3-14 137-75.3 256-99.1 391.2M611 233c0 149.2 15.6 319.8-2.3 468.2-7.9 65.5-29 126.5-36.8 192.8-23.5 199.7-86.7 393.5-112.4 594M576.1 237.7a7068.3 7068.3 0 0 1-52.4 663c-9.2 71.7-41 127.3-51.8 197.6a5401 5401 0 0 0-47.9 396.2M512.2 221c-.7 234.4-6.8 447.6-34.7 679.9-9 75.1-45 127.7-57.4 200.4-23 132.4-31.8 269.6-39.6 403.7m60-1319c4.7 237.7 23.9 477 2 714.7-8 88.4-65.2 142-80.6 228-22.9 128.3-26 261-30.9 390.8m41.5-1364c4.4 170.7-13.5 342.2 4.9 512.2 8.6 79.9 46 153.3 40.1 235-7.3 99.8-88.5 149.5-110.2 244.8-28.7 126.4-19.2 261.4-20.3 390m19.2-1395.7c3.6 160.7-27.8 357.3 10.4 515.6 20.3 84 86.2 159.2 80.8 249.5-6.4 109-110.9 146.4-144.9 242.6-43 121.8-13.2 279.3-10.5 406m.5-1419.5c1.5 150-35.1 348.6 11 494.2 29.4 92.1 129 173 123.9 275.6-6 118.9-140.2 161-181.2 262.6-48.6 119.6-6.3 279.8.8 404.6M180.5 134.5c-.8 139-41.3 340.9 11.1 473.5 39 98.6 165.2 185.8 162.1 299.2-3.5 125.4-166.3 176.8-213.4 280.1-53.9 118.3-1 279 9.7 402.2m-25-1454c-2.7 133.7-46.7 330 7.3 456.1C177 696 325.1 786 322.5 908c-2.8 130.4-184.8 188-236.6 292.9-58.5 118.3 4.4 278.6 17.6 401.7M65.3 137.1c93.9-2.1 187.4-7.2 280.3 11 72.6 14.2 168.8 91 234.2 89.7 67-1.2 74.9-47 125.4-88 61.7-50.2 105-58.9 187-56.4 93.7 2.8 136-21.4 220.8-59.2 301.2-134.5 530.1 172.8 813 208.2 20.5 91.6-94 142.1-188 161.1-81.5 16.5-54 91-86 167-54.7 129.9-220.7 166-197.1 301.7 26.9 155.3 295.7 74.4 365.3 196.1 21.3 48.2 35.7 114.4 45.8 172.2 11.5 66 18 116 20.3 177.7-203 47.8-440.3 258-653.4 224.1-156-24.8-277.6-149.5-437.5-165.5-116.9-11.7-261.9-5.5-378 19C288 1523.5 181.8 1596.7 48 1612.4c-14-124.3-83.7-286.5-21.4-405.8 55.3-106 242.9-165 245.8-298.4 2.9-127.3-155.8-215.6-202.6-323.9-53.3-122.4-8.3-316.8-4.4-447.1Z"/>
	<style> path { stroke: #18140F; } @media (prefers-color-scheme: dark) { path { stroke: #FFFAF5; } } </style>
</svg>
